icon/ir/behance.svg

<svg viewBox="0 0 24 24" stroke-width="1.5" fill="none" xmlns="http://www.w3.org/2000/svg" height="1em" width="1em">
  <path d="M8.19718 11.2174C13.2676 11.2174 13.2676 18 8.19718 18C5.33701 18 2 18 2 18V11.2174M8.19718 11.2174C5.33701 11.2174 2 11.2174 2 11.2174M8.19718 11.2174C13.2676 11.2174 13.2676 5.00001 8.19718 5C5.94366 5 2 5 2 5V11.2174" stroke="currentColor" stroke-linecap="round" stroke-linejoin="round"/>
  <path d="M18 9C15.7909 9 14 11.0147 14 13.5H22C22 11.0147 20.2091 9 18 9Z" stroke="currentColor" stroke-linecap="round" stroke-linejoin="round"/>
  <path d="M14 13.5C14 15.9853 15.7909 18 18 18C20.7552 18 21.5 16 21.5 16" stroke="currentColor" stroke-linecap="round" stroke-linejoin="round"/>
  <path d="M20.5 6L15.5 6" stroke="currentColor" stroke-linecap="round" stroke-linejoin="round"/>
</svg>

<svg width="24" height="24" stroke-width="1.5" fill="none" xmlns="http://www.w3.org/2000/svg"><path d="M8.197 11.217c5.07 0 5.07 6.783 0 6.783H2v-6.783m6.197 0H2m6.197 0c5.07 0 5.07-6.217 0-6.217H2v6.217M18 9c-2.21 0-4 2.015-4 4.5h8c0-2.485-1.79-4.5-4-4.5ZM14 13.5c0 2.485 1.79 4.5 4 4.5 2.755 0 3.5-2 3.5-2M20.5 6h-5" stroke="currentColor" stroke-linecap="round" stroke-linejoin="round"/></svg>
